!!!OTL: ES ZOGEN DREI BURSCHE WOHL UEBER DEN RHEIN
!!!ARE: Europa, Mitteleuropa, Deutschland, Rheinland
!!!SCT: Z0067
!!!YEM: Copyright 1995, estate of Helmut Schaffrath.
**kern
*ICvox
*Ivox
*M2/4
*k[f#c#]
*D:
{4d
=1
4f#
8a
8a
=2
2dd
=3
4b}
{4b
=4
4b
8a
8a
=5
2a
=6
4r}
{4f#
=7
4f#
8g
8g
=8
2a
=9
4e}
{4e
=10
4g
8f#
8f#
=11
2f#
=12
4r}
{4d
=13
4f#
8a
8a
=14
4dd
4dd}
=15
{2ff#
=16
4ee
8ee
8ee
=17
4dd}
==
!!!AGN: Sagen - Lied, Romanze, Tod
!!!ONB: ESAC (Essen Associative Code) Database: ZUCCAL
!!!AMT: simple duple
!!!AIN: vox
!!!EED: Helmut Schaffrath
!!!EEV: 1.0
*-
